X:1
T:The Nobleman and the Thresher
M:4/4
L:1/8
K:C
 A| AAA-F D2 EF| GG EF D2 z G| AB cA d2 cB| A3/2 G/2 GB A2 z| G| ABc-A dd cB|\
 AG FE D z ED| CDE/2-F/2 GA-B cA| G2 EF D2 z||
